dist/svg/static/address-book-small.svg

<svg xmlns="http://www.w3.org/2000/svg" width="24" height="24" viewBox="0 0 24 24"><g fill="none" stroke="currentColor"><g stroke-miterlimit="10"><path d="M1.5.5h17v23h-17zm17 15h2a1.004 1.004 0 0 1 1 1.001V22.5a1.004 1.004 0 0 1-1 1.001h-2"/><path d="M18 7.5h2.5a1.004 1.004 0 0 1 1 1.001V14.5a1.004 1.004 0 0 1-1 1.001H18M18.5.5h2a1.003 1.003 0 0 1 1 1v5a1.003 1.003 0 0 1-1 1h-2"/></g><path d="M5.5 17.5v-4.027a.991.991 0 0 1 1.008-.973h6.984a.994.994 0 0 1 1.008.974V17.5h-9z"/><rect x="7.5" y="5.5" width="5" height="5" rx="2" ry="2"/></g></svg>

<?xml version="1.0" encoding="UTF-8" standalone="no"?>
<svg width="24px" height="24px" viewBox="0 0 24 24" version="1.1" xmlns="http://www.w3.org/2000/svg" xmlns:xlink="http://www.w3.org/1999/xlink">
    <!-- Generator: sketchtool 46.2 (44496) - http://www.bohemiancoding.com/sketch -->
    <title>address-book-small</title>
    <desc>Created with sketchtool.</desc>
    <defs></defs>
    <g id="icons-published" stroke="none" stroke-width="1" fill="none" fill-rule="evenodd">
        <g id="briefing" transform="translate(-932.000000, -26.000000)"></g>
        <g id="address-book-small" stroke="#000000">
            <path d="M1.5,0.5 L18.5,0.5 L18.5,23.5 L1.5,23.5 L1.5,0.5 Z M18.5,15.5 L20.5,15.5 C21.1,15.5 21.5,15.9 21.5,16.5 L21.5,22.5 C21.5,23.1 21.1,23.5 20.5,23.5 L18.5,23.5 L18.5,15.5 Z" id="Shape"></path>
            <path d="M18,7.5 L20.5,7.5 C21.1,7.5 21.5,7.9 21.5,8.5 L21.5,14.5 C21.5,15.1 21.1,15.5 20.5,15.5 L18,15.5 M18.5,0.5 L20.5,0.5 C21.1,0.5 21.5,0.9 21.5,1.5 L21.5,6.5 C21.5,7.1 21.1,7.5 20.5,7.5 L18.5,7.5" id="Shape"></path>
            <path d="M5.5,17.5 L5.5,13.5 C5.5,13 6,12.5 6.5,12.5 L13.5,12.5 C14,12.5 14.5,12.9 14.5,13.5 L14.5,17.5 C14.5,17.5 5.5,17.5 5.5,17.5 Z" id="Shape"></path>
            <path d="M9.5,5.5 L10.5,5.5 C11.6,5.5 12.5,6.4 12.5,7.5 L12.5,8.5 C12.5,9.6 11.6,10.5 10.5,10.5 L9.5,10.5 C8.4,10.5 7.5,9.6 7.5,8.5 L7.5,7.5 C7.5,6.4 8.4,5.5 9.5,5.5 Z" id="Shape"></path>
        </g>
    </g>
</svg>
